Kaze-dark-colors/24x24/devices/drive-removable-media.svg

<?xml version="1.0" encoding="UTF-8" standalone="no"?>
<svg xmlns:inkscape="http://www.inkscape.org/namespaces/inkscape" xmlns:sodipodi="http://sodipodi.sourceforge.net/DTD/sodipodi-0.dtd" xmlns="http://www.w3.org/2000/svg" xmlns:svg="http://www.w3.org/2000/svg" width="24" height="24" viewBox="0 0 24 24" fill="none" version="1.1" id="svg4" sodipodi:docname="drive-removable-media.svg" inkscape:version="1.4 (e7c3feb100, 2024-10-09)">
    <defs id="defs1">
        <style id="current-color-scheme" type="text/css">
            .ColorScheme-Text { color:#e6f0f5; }
            .ColorScheme-Highlight { color:#2179cb; }
            .ColorScheme-Background { color:#e4e4e4; }
        </style>
    </defs>
    <sodipodi:namedview id="namedview4" pagecolor="#ffffff" bordercolor="#ffffff" borderopacity="0.25" inkscape:showpageshadow="2" inkscape:pageopacity="0.0" inkscape:pagecheckerboard="0" inkscape:deskcolor="#d1d1d1" inkscape:zoom="33.291667" inkscape:cx="11.984981" inkscape:cy="12" inkscape:window-width="1920" inkscape:window-height="1008" inkscape:window-x="0" inkscape:window-y="0" inkscape:window-maximized="1" inkscape:current-layer="svg4"/>
    <g clip-path="url(#clip0_945_344)" id="g4">
        <path id="path2" d="m 15,8 c 0,-0.55228 0.4477,-1 1,-1 h 2 c 0.5523,0 1,0.44772 1,1 v 2 h -4 z m -1,3 c 0,-0.5523 0.4477,-1 1,-1 h 4 c 0.5523,0 1,0.4477 1,1 v 7 c 0,1.1046 -0.8954,2 -2,2 h -2 c -1.1046,0 -2,-0.8954 -2,-2 z" style="stroke:#ffffff;stroke-opacity:1"/>
        <path d="M12 19C8.13401 19 5 15.866 5 12C5 8.13401 8.13401 5 12 5C13.0112 5 13.9722 5.21439 14.8403 5.6002" stroke="#ffffff" stroke-width="1.2" stroke-linecap="round" id="path3"/>
        <path d="M12 14C10.8954 14 10 13.1046 10 12C10 10.8954 10.8954 10 12 10" stroke="#ffffff" stroke-width="1.2" stroke-linecap="round" id="path4"/>
        <path id="path2" d="m 15,8 c 0,-0.55228 0.4477,-1 1,-1 h 2 c 0.5523,0 1,0.44772 1,1 v 2 h -4 z m -1,3 c 0,-0.5523 0.4477,-1 1,-1 h 4 c 0.5523,0 1,0.4477 1,1 v 7 c 0,1.1046 -0.8954,2 -2,2 h -2 c -1.1046,0 -2,-0.8954 -2,-2 z" style="stroke:currentColor;opacity:0.5;" class="ColorScheme-Highlight"/>
        <path d="M12 19C8.13401 19 5 15.866 5 12C5 8.13401 8.13401 5 12 5C13.0112 5 13.9722 5.21439 14.8403 5.6002" style="stroke:currentColor;opacity:0.5;" class="ColorScheme-Highlight" stroke-width="1.2" stroke-linecap="round" id="path3"/>
        <path d="M12 14C10.8954 14 10 13.1046 10 12C10 10.8954 10.8954 10 12 10" style="stroke:currentColor;opacity:0.5;" class="ColorScheme-Highlight" stroke-width="1.2" stroke-linecap="round" id="path4"/>
    </g>
    <defs id="defs4">
        <clipPath id="clip0_945_344">
            <rect width="24" height="24" fill="white" id="rect4"/>
        </clipPath>
    </defs>
</svg>

<svg width="24" height="24" viewBox="0 0 24 24" fill="none" xmlns="http://www.w3.org/2000/svg">
<g clip-path="url(#clip0_3017_1987)">
<mask id="mask0_3017_1987" style="mask-type:luminance" maskUnits="userSpaceOnUse" x="0" y="0" width="24" height="24">
<path d="M24 0H0V24H24V0Z" fill="white"/>
</mask>
<g mask="url(#mask0_3017_1987)">
<path d="M14 11C14 10.4477 14.4477 10 15 10H19C19.5523 10 20 10.4477 20 11V18C20 19.1046 19.1046 20 18 20H16C14.8954 20 14 19.1046 14 18V11Z" stroke="#DDDDDD" stroke-width="1.2"/>
<path d="M15 8C15 7.44772 15.4477 7 16 7H18C18.5523 7 19 7.44772 19 8V10H15V8Z" stroke="#DDDDDD" stroke-width="1.2"/>
<path d="M12 19C8.13401 19 5 15.866 5 12C5 8.13401 8.13401 5 12 5C13.0112 5 13.9722 5.21439 14.8403 5.6002" stroke="#DDDDDD" stroke-width="1.2" stroke-linecap="round"/>
<path d="M12 14C10.8954 14 10 13.1046 10 12C10 10.8954 10.8954 10 12 10" stroke="#DDDDDD" stroke-width="1.2" stroke-linecap="round"/>
</g>
</g>
<defs>
<clipPath id="clip0_3017_1987">
<rect width="24" height="24" fill="white"/>
</clipPath>
</defs>
</svg>
